X:1
T:Asturias
T:Asturias 
T:Erschienen 1892 
T:Opus 47 Nr. 5
C:Opus 7 Nr. 5
%%score { ( 1 4 5 ) | ( 2 3 ) }
L:1/8
Q:1/4=144
M:3/4
K:Bb
V:1 treble nm="Piano" snm="Pno."
V:4 treble 
V:5 treble 
V:2 bass 
V:3 bass 
V:1
"^Allegro ma non troppo"!pp![I:staff +1] !^!G,/[I:staff -1].D/[I:staff +1].D/[I:staff -1].D/[I:staff +1] .E/[I:staff -1].D/[I:staff +1].C/[I:staff -1].D/[I:staff +1] .D/[I:staff -1].D/[I:staff +1].B,/[I:staff -1].D/ | %1
[I:staff +1] !^!G,/[I:staff -1].D/[I:staff +1].D/[I:staff -1].D/[I:staff +1] .E/[I:staff -1].D/[I:staff +1].C/[I:staff -1].D/[I:staff +1] .D/[I:staff -1].D/[I:staff +1].B,/[I:staff -1].D/ | %2
!<(![I:staff +1] !^!G,/[I:staff -1].D/[I:staff +1].D/[I:staff -1].D/[I:staff +1] .E/[I:staff -1].D/[I:staff +1].C/[I:staff -1].D/[I:staff +1] .D/[I:staff -1].D/[I:staff +1].B,/[I:staff -1].D/!<)! | %3
!>(![I:staff +1] .C/[I:staff -1].D/[I:staff +1].A,/[I:staff -1].D/[I:staff +1] .B,/[I:staff -1].D/[I:staff +1].C/[I:staff -1].D/[I:staff +1] .A,/[I:staff -1].D/[I:staff +1].B,/[I:staff -1].D/!>)! | %4
!pp![I:staff +1] !^!G,/[I:staff -1].D/[I:staff +1].D/[I:staff -1].D/[I:staff +1] .E/[I:staff -1].D/[I:staff +1].C/[I:staff -1].D/[I:staff +1] .D/[I:staff -1].D/[I:staff +1].B,/[I:staff -1].D/ | %5
[I:staff +1] !^!G,/[I:staff -1].D/[I:staff +1].D/[I:staff -1].D/[I:staff +1] .E/[I:staff -1].D/[I:staff +1].C/[I:staff -1].D/[I:staff +1] .D/[I:staff -1].D/[I:staff +1].B,/[I:staff -1].D/ | %6
!<(![I:staff +1] !^!G,/[I:staff -1].D/[I:staff +1].D/[I:staff -1].D/[I:staff +1] .E/[I:staff -1].D/[I:staff +1].C/[I:staff -1].D/[I:staff +1] .D/[I:staff -1].D/[I:staff +1].B,/[I:staff -1].D/ | %7
[I:staff +1] .C/[I:staff -1].D/[I:staff +1].A,/[I:staff -1].D/[I:staff +1] .B,/[I:staff -1].D/[I:staff +1].G,/[I:staff -1].D/[I:staff +1] .F,/[I:staff -1].D/[I:staff +1].E,/[I:staff -1].D/!<)! | %8
!pp![I:staff +1] !^!D,/[I:staff -1].D/[I:staff +1].D/[I:staff -1].D/[I:staff +1] .E/[I:staff -1].D/[I:staff +1].C/[I:staff -1].D/[I:staff +1] .D/[I:staff -1].D/[I:staff +1].A,/[I:staff -1].D/ | %9
[I:staff +1] !^!D,/[I:staff -1].D/[I:staff +1].D/[I:staff -1].D/[I:staff +1] .E/[I:staff -1].D/[I:staff +1].C/[I:staff -1].D/[I:staff +1] .D/[I:staff -1].D/[I:staff +1].A,/[I:staff -1].D/ | %10
!<(![I:staff +1] !^!D,/[I:staff -1].D/[I:staff +1].A,/[I:staff -1].D/[I:staff +1] .C/[I:staff -1].D/[I:staff +1].D/[I:staff -1].D/[I:staff +1] .E/[I:staff -1].D/[I:staff +1].F/[I:staff -1].D/!<)! | %11
!>(![I:staff +1] .D/[I:staff -1].D/[I:staff +1].E/[I:staff -1].D/[I:staff +1] .C/[I:staff -1].D/[I:staff +1].D/[I:staff -1].D/[I:staff +1] .B,/[I:staff -1].D/[I:staff +1].A,/[I:staff -1].D/!>)! | %12
!pp![I:staff +1] !^!D,/[I:staff -1].D/[I:staff +1].D/[I:staff -1].D/[I:staff +1] .E/[I:staff -1].D/[I:staff +1].C/[I:staff -1].D/[I:staff +1] .D/[I:staff -1].D/[I:staff +1].A,/[I:staff -1].D/ | %13
[I:staff +1] !^!D,/[I:staff -1].D/[I:staff +1].D/[I:staff -1].D/[I:staff +1] .E/[I:staff -1].D/[I:staff +1].C/[I:staff -1].D/[I:staff +1] .D/[I:staff -1].D/[I:staff +1].A,/[I:staff -1].D/ | %14
!<(![I:staff +1] !^!D,/[I:staff -1].D/[I:staff +1].C/[I:staff -1].D/[I:staff +1] .D/[I:staff -1].D/[I:staff +1].E/[I:staff -1].D/[I:staff +1] .F/[I:staff -1].D/[I:staff +1].D/[I:staff -1].D/!<)! | %15
!>(![I:staff +1] .E/[I:staff -1].D/[I:staff +1].C/[I:staff -1].D/[I:staff +1] .D/[I:staff -1].D/[I:staff +1].B,/[I:staff -1].D/[I:staff +1] .C/[I:staff -1].D/[I:staff +1].A,/[I:staff -1].D/!>)! | %16
!pp![I:staff +1] !^!G,/[I:staff -1].[Dd]/[I:staff +1].D/[I:staff -1].[Dd]/[I:staff +1] .E/[I:staff -1].[Dd]/[I:staff +1].C/[I:staff -1].[Dd]/[I:staff +1] .D/[I:staff -1].[Dd]/[I:staff +1].B,/[I:staff -1].[Dd]/ | %17
[I:staff +1] !^!G,/[I:staff -1].[Dd]/[I:staff +1].D/[I:staff -1].[Dd]/[I:staff +1] .E/[I:staff -1].[Dd]/[I:staff +1].C/[I:staff -1].[Dd]/[I:staff +1] .D/[I:staff -1].[Dd]/[I:staff +1].B,/[I:staff -1].[Dd]/ | %18
[I:staff +1] !^!G,/[I:staff -1].[Dd]/[I:staff +1].D/[I:staff -1].[Dd]/[I:staff +1] .E/[I:staff -1].[Dd]/[I:staff +1].C/[I:staff -1].[Dd]/[I:staff +1] .D/[I:staff -1].[Dd]/[I:staff +1].B,/[I:staff -1].[Dd]/ | %19
[I:staff +1] .C/[I:staff -1].[Dd]/[I:staff +1].A,/[I:staff -1].[Dd]/[I:staff +1] .B,/[I:staff -1].[Dd]/[I:staff +1].C/[I:staff -1].[Dd]/[I:staff +1] .A,/[I:staff -1].[Dd]/[I:staff +1].B,/[I:staff -1].[Dd]/ | %20
[I:staff +1] !^!G,/[I:staff -1].[Dd]/[I:staff +1].D/[I:staff -1].[Dd]/[I:staff +1] .E/[I:staff -1].[Dd]/[I:staff +1].C/[I:staff -1].[Dd]/[I:staff +1] .D/[I:staff -1].[Dd]/[I:staff +1].B,/[I:staff -1].[Dd]/ | %21
[I:staff +1] !^!G,/[I:staff -1].[Dd]/[I:staff +1].D/[I:staff -1].[Dd]/[I:staff +1] .E/[I:staff -1].[Dd]/[I:staff +1].C/[I:staff -1].[Dd]/[I:staff +1] .D/[I:staff -1].[Dd]/[I:staff +1].B,/[I:staff -1].[Dd]/ | %22
[I:staff +1] !^!G,/[I:staff -1].[Dd]/[I:staff +1].D/[I:staff -1].[Dd]/[I:staff +1] .E/[I:staff -1].[Dd]/[I:staff +1].C/[I:staff -1].[Dd]/[I:staff +1] .D/[I:staff -1].[Dd]/[I:staff +1].B,/[I:staff -1].[Dd]/ | %23
[I:staff +1] .C/[I:staff -1].[Dd]/[I:staff +1].A,/[I:staff -1].[Dd]/[I:staff +1] .B,/[I:staff -1].[Dd]/[I:staff +1].G,/[I:staff -1].[Dd]/[I:staff +1] .F,/[I:staff -1].[Dd]/[I:staff +1].E,/[I:staff -1].[Dd]/ | %24
 !^![d^fad']/.[Dd]/[I:staff +1] .D/[I:staff -1].[Dd]/[I:staff +1] .E/[I:staff -1].[Dd]/[I:staff +1].C/[I:staff -1].[Dd]/[I:staff +1] .D/[I:staff -1].[Dd]/[I:staff +1].A,/[I:staff -1].[Dd]/ | %25
 !^![d^fad']/.[Dd]/[I:staff +1] .D/[I:staff -1].[Dd]/[I:staff +1] .E/[I:staff -1].[Dd]/[I:staff +1].C/[I:staff -1].[Dd]/[I:staff +1] .D/[I:staff -1].[Dd]/[I:staff +1].A,/[I:staff -1].[Dd]/ | %26
 !^![d^fad']/.[Dd]/[I:staff +1] .A,/[I:staff -1].[Dd]/[I:staff +1] .C/[I:staff -1].[Dd]/[I:staff +1].D/[I:staff -1].[Dd]/[I:staff +1] .E/[I:staff -1].[Dd]/[I:staff +1].F/[I:staff -1].[Dd]/ | %27
[I:staff +1] .D/[I:staff -1].[Dd]/[I:staff +1].E/[I:staff -1].[Dd]/[I:staff +1] .C/[I:staff -1].[Dd]/[I:staff +1].D/[I:staff -1].[Dd]/[I:staff +1] .B,/[I:staff -1].[Dd]/[I:staff +1].A,/[I:staff -1].[Dd]/ | %28
 !^![d^fad']/.[Dd]/[I:staff +1] .D/[I:staff -1].[Dd]/[I:staff +1] .E/[I:staff -1].[Dd]/[I:staff +1].C/[I:staff -1].[Dd]/[I:staff +1] .D/[I:staff -1].[Dd]/[I:staff +1].A,/[I:staff -1].[Dd]/ | %29
 !^![d^fad']/.[Dd]/[I:staff +1] .D/[I:staff -1].[Dd]/[I:staff +1] .E/[I:staff -1].[Dd]/[I:staff +1].C/[I:staff -1].[Dd]/[I:staff +1] .D/[I:staff -1].[Dd]/[I:staff +1].A,/[I:staff -1].[Dd]/ | %30
 !^![d^fad']/.[Dd]/[I:staff +1] .A,/[I:staff -1].[Dd]/[I:staff +1] .C/[I:staff -1].[Dd]/[I:staff +1].D/[I:staff -1].[Dd]/[I:staff +1] .E/[I:staff -1].[Dd]/[I:staff +1].F/[I:staff -1].[Dd]/ | %31
[I:staff +1] .D/[I:staff -1].[Dd]/[I:staff +1].E/[I:staff -1].[Dd]/[I:staff +1] .C/[I:staff -1].[Dd]/[I:staff +1].D/[I:staff -1].[Dd]/[I:staff +1] .B,/[I:staff -1].[Dd]/[I:staff +1].D/[I:staff -1].[Dd]/ | %32
!fff! !^![gbd'g']/.[Dd]/[I:staff +1] .D/[I:staff -1].[Dd]/[I:staff +1] .E/[I:staff -1].[Dd]/[I:staff +1].C/[I:staff -1].[Dd]/[I:staff +1] .D/[I:staff -1].[Dd]/[I:staff +1].B,/[I:staff -1].[Dd]/ | %33
 !^![gbd'g']/.[Dd]/[I:staff +1] .D/[I:staff -1].[Dd]/[I:staff +1] .E/[I:staff -1].[Dd]/[I:staff +1].C/[I:staff -1].[Dd]/[I:staff +1] .D/[I:staff -1].[Dd]/[I:staff +1].B,/[I:staff -1].[Dd]/ | %34
!fff! !^![gbd'g']/.[Dd]/[I:staff +1] .D/[I:staff -1].[Dd]/[I:staff +1] .E/[I:staff -1].[Dd]/[I:staff +1].C/[I:staff -1].[Dd]/[I:staff +1] .D/[I:staff -1].[Dd]/[I:staff +1].B,/[I:staff -1].[Dd]/ | %35
[I:staff +1] .C/[I:staff -1].[Dd]/[I:staff +1].A,/[I:staff -1].[Dd]/[I:staff +1] .B,/[I:staff -1].[Dd]/[I:staff +1].C/[I:staff -1].[Dd]/[I:staff +1] .A,/[I:staff -1].[Dd]/[I:staff +1].B,/[I:staff -1].[Dd]/ | %36
!fff! !^![gbe'g']/.[Ee]/[I:staff +1] .E/[I:staff -1].[Ee]/[I:staff +1] .F/[I:staff -1].[Ee]/[I:staff +1].D/[I:staff -1].[Ee]/[I:staff +1] .E/[I:staff -1].[Ee]/[I:staff +1].B,/[I:staff -1].[Ee]/ | %37
!fff! !^![gbe'g']/.[Ee]/[I:staff +1] .E/[I:staff -1].[Ee]/[I:staff +1] .F/[I:staff -1].[Ee]/[I:staff +1].D/[I:staff -1].[Ee]/[I:staff +1] .E/[I:staff -1].[Ee]/[I:staff +1].B,/[I:staff -1].[Ee]/ | %38
!fff! !^![gbe'g']/.[Ee]/[I:staff +1] .E/[I:staff -1].[Ee]/[I:staff +1] .F/[I:staff -1].[Ee]/[I:staff +1].D/[I:staff -1].[Ee]/[I:staff +1] .E/[I:staff -1].[Ee]/[I:staff +1].B,/[I:staff -1].[Ee]/ | %39
[I:staff +1] .C/[I:staff -1].[Ee]/[I:staff +1].A,/[I:staff -1].[Ee]/[I:staff +1] .B,/[I:staff -1].[Ee]/[I:staff +1].C/[I:staff -1].[Ee]/[I:staff +1] .G,/[I:staff -1].[Ee]/[I:staff +1].A,/[I:staff -1].[Ee]/ | %40
!fff!!8va(! !^![d'^f'a'd'']/!8va)!.[Dd]/[I:staff +1] .D/[I:staff -1].[Dd]/[I:staff +1] .E/[I:staff -1].[Dd]/[I:staff +1].^C/[I:staff -1].[Dd]/[I:staff +1] .D/[I:staff -1].[Dd]/[I:staff +1].A,/[I:staff -1].[Dd]/ | %41
!ff!!8va(! !^![g'b'd''g'']/!8va)!.[Ee]/[I:staff +1] .E/[I:staff -1].[Ee]/[I:staff +1] .F/[I:staff -1].[Ee]/[I:staff +1].D/[I:staff -1].[Ee]/[I:staff +1] .E/[I:staff -1].[Ee]/[I:staff +1].B,/[I:staff -1].[Ee]/ | %42
!8va(! !^![d'^f'a'd'']/!8va)!.[Dd]/[I:staff +1] .D/[I:staff -1].[Dd]/[I:staff +1] .E/[I:staff -1].[Dd]/[I:staff +1].^C/[I:staff -1].[Dd]/[I:staff +1] .D/[I:staff -1].[Dd]/[I:staff +1].A,/[I:staff -1].[Dd]/ | %43
!8va(! !^![g'b'd''g'']/!8va)!.[Ee]/[I:staff +1] .E/[I:staff -1].[Ee]/[I:staff +1] .F/[I:staff -1].[Ee]/[I:staff +1].D/[I:staff -1].[Ee]/[I:staff +1] .E/[I:staff -1].[Ee]/[I:staff +1].B,/[I:staff -1].[Ee]/ | %44
!ff!!8va(! !^![d'^f'a'd'']/!8va)!.[Dd]/[I:staff +1] .D/[I:staff -1].[Dd]/[I:staff +1] .E/[I:staff -1].[Dd]/[I:staff +1].=C/[I:staff -1].[Dd]/[I:staff +1] .D/[I:staff -1].[Dd]/[I:staff +1].B,/[I:staff -1].[Dd]/ | %45
[I:staff +1] .C/[I:staff -1].[Dd]/[I:staff +1].A,/[I:staff -1].[Dd]/[I:staff +1] .B,/[I:staff -1].[Dd]/[I:staff +1].C/[I:staff -1].[Dd]/[I:staff +1] .A,/[I:staff -1].[Dd]/[I:staff +1].B,/[I:staff -1].[Dd]/ | %46
[I:staff +1] .G,/[I:staff -1].[Dd]/[I:staff +1].A,/[I:staff -1].[Dd]/[I:staff +1] .B,/[I:staff -1].[Dd]/[I:staff +1].C/[I:staff -1].[Dd]/[I:staff +1] .A,/[I:staff -1].[Dd]/[I:staff +1].B,/[I:staff -1].[Dd]/ | %47
[I:staff +1] .G,/[I:staff -1].[Dd]/[I:staff +1].A,/[I:staff -1].[Dd]/[I:staff +1] .B,/[I:staff -1].[Dd]/[I:staff +1].G,/[I:staff -1].[Dd]/[I:staff +1] .F,/[I:staff -1].[Dd]/[I:staff +1].E,/[I:staff -1].[Dd]/ | %48
!mf! !^![Dd]/.D/[I:staff +1] .D/[I:staff -1].D/[I:staff +1] .E/[I:staff -1].D/[I:staff +1].C/[I:staff -1].D/[I:staff +1] .D/[I:staff -1].D/[I:staff +1].B,/[I:staff -1].D/ | %49
[I:staff +1] .C/[I:staff -1].D/[I:staff +1].A,/[I:staff -1].D/[I:staff +1] .B,/[I:staff -1].D/[I:staff +1].C/[I:staff -1].D/[I:staff +1] .A,/[I:staff -1].D/[I:staff +1].B,/[I:staff -1].D/ | %50
[I:staff +1] .G,/[I:staff -1].D/[I:staff +1].A,/[I:staff -1].D/[I:staff +1] .B,/[I:staff -1].D/[I:staff +1].C/[I:staff -1].D/[I:staff +1] .A,/[I:staff -1].D/[I:staff +1].B,/[I:staff -1].D/ | %51
[I:staff +1] .G,/[I:staff -1].D/[I:staff +1].A,/[I:staff -1].D/[I:staff +1] .B,/[I:staff -1].D/[I:staff +1].G,/[I:staff -1].D/[I:staff +1] .F,/[I:staff -1].D/[I:staff +1].E,/[I:staff -1].D/ | %52
[K:bass] x6 | x6 | x6 | x6 |!<(! x6!<)! |!>(! x6!>)! | %58
[I:staff +1] D,,/[I:staff -1]^F,/[I:staff +1]F,/[I:staff -1]A,/[I:staff +1] A,/[I:staff -1][K:treble]D/[I:staff +1]D/[I:staff -1]^F/[I:staff +1] F/[I:staff -1]A/[I:staff +1]A/[I:staff -1]d/ | %59
[I:staff +1] d/[I:staff -1]^f/[I:staff +1]f/[I:staff -1]a/[I:staff +1] a/[I:staff -1]d'/[I:staff +1]d'/[I:staff -1]^f'/[I:staff +1] f'/[I:staff -1]a'/[I:staff +1]a'/!8va(![I:staff -1]b'/ | %60
 [d'^f'd'']6- | [d'f'd'']2!8va)! z2 z2 || %62
[Q:1/4=92]"^Andante""_cantando largamente ma dolce" (d'4 c'd' | f'4 Pd'c' | d'4)!mf! ([A,D^F]2 | %65
 !fermata![A,D^FA]6) |"_poco cresc." (d'4 c'd' |!>(! f'4 Pd'c'!>)! | d'4)!mf! ([F,B,D]2 | %69
 !fermata![F,B,DF]6) | (d'4 ^c'2- |!>(! c'2{b=c'} ba gb!>)! | a4)!mf! ([A,D^F]2 | %73
 !fermata![A,D^FA]6) | (d'4 e'd' |"_dim. e rit. molto"!>(! ^c'a{b=c'} ba gb | a4)!>)! ([A,^CG]2 | %77
 [A,D^F]6) |"^rit. molto" z2 !^![DF]4 | z2!<(! (P_GF Ge)!<)! | z2 [DFd]4 | z2 d4 | z2 (B2 d2) | %83
"^rit. molto" z2 (A2 d2) | z2 (A2 d2) | z2 !fermata![^CG]4 |!<(! z2 z2 !^![D^F]2!<)! | %87
"_marcato" z2 .[GA]2 .[GA]2 |!<(! z2 z2 !^![D^F]2!<)! |"_marcato" z2 .[GA]2 .[GA]2 | %90
 z2 z2 !^![D^F]2 |!<(! (c'd' e'f'/!<)!"^dim. e rall."e'/ d'c' |"_molto morendo" d'^c' a=c' =bg | %93
 _ba ^f_a g_e) |"^a tempo" z2 z2 !^![D^F]2 | z2 .[_Ac]2 .[Ac]2 | z2 z2 !^![G=B]2 | %97
 z2 .[_Ac]2 .[Ac]2 | z2 z2 !^![G=B]2 | (e^f gd/e/ cd | Bd"_dim." Ad Bd |"_cresc." ga bf/g/ ef | %102
 df ^cf df) | (_ab c'e' P_d'c' | e'c' b"^rit."=a c'!fermata!e') |"_cresc." (EF GA/G/ FE) | %106
"_dim." z2 z2 !^![D^F]2 | z2 .[Ac]2 .[Ac]2 |"_morendo" z2 z2 !^![D^F]2 | z2 .[Ac]2 .[Ac]2 | %110
"_dim." z2 z2 !^![D^F]2 | %111
[I:staff +1] .B,/"^a tempo"[I:staff -1].[D=F]/[I:staff +1].^C/[I:staff -1].[DF]/[I:staff +1] .D/[I:staff -1].[DF]/[I:staff +1].F/[I:staff -1].[DF]/[I:staff +1] .C/[I:staff -1].[DF]/[I:staff +1].D/[I:staff -1].[DF]/ | %112
[I:staff +1] .F,/[I:staff -1].[A,CF]/[I:staff +1].^G,/[I:staff -1].[A,CF]/[I:staff +1] .A,/[I:staff -1].[A,CF]/[I:staff +1].C/[I:staff -1].[A,CF]/[I:staff +1] .G,/[I:staff -1].[A,CF]/[I:staff +1].A,/[I:staff -1].[A,CF]/ | %113
[I:staff +1] .E,/[I:staff -1].[B,^CG]/[I:staff +1].A,/[I:staff -1].[B,CG]/[I:staff +1] .B,/"^rall."[I:staff -1].[B,CG]/[I:staff +1].G,/[I:staff -1].[B,CG]/[I:staff +1] .F,/[I:staff -1].[B,CG]/[I:staff +1].E,/[I:staff -1].[B,CG]/ | %114
!pp! (d'4!<(! c'd' | f'4!<)! Pd'c' | d'4) ([A,D^F]2 | !fermata![A,D^FA]6) | %118
"^molto rall." (d'4 c'd' | f'4 Pd'c' |"_morendo" d'4) [A,^CG]2 | !fermata![A,D^F]6 || %122
!pp![Q:1/4=144]"^Tempo I"[I:staff +1] !^!G,/[I:staff -1].D/[I:staff +1].D/[I:staff -1].D/[I:staff +1] .E/[I:staff -1].D/[I:staff +1].C/[I:staff -1].D/[I:staff +1] .D/[I:staff -1].D/[I:staff +1].B,/[I:staff -1].D/ | %123
[I:staff +1] !^!G,/[I:staff -1].D/[I:staff +1].D/[I:staff -1].D/[I:staff +1] .E/[I:staff -1].D/[I:staff +1].C/[I:staff -1].D/[I:staff +1] .D/[I:staff -1].D/[I:staff +1].B,/[I:staff -1].D/ | %124
!<(![I:staff +1] !^!G,/[I:staff -1].D/[I:staff +1].D/[I:staff -1].D/[I:staff +1] .E/[I:staff -1].D/[I:staff +1].C/[I:staff -1].D/[I:staff +1] .D/[I:staff -1].D/[I:staff +1].B,/[I:staff -1].D/!<)! | %125
!>(![I:staff +1] .C/[I:staff -1].D/[I:staff +1].A,/[I:staff -1].D/[I:staff +1] .B,/[I:staff -1].D/[I:staff +1].C/[I:staff -1].D/[I:staff +1] .A,/[I:staff -1].D/[I:staff +1].B,/[I:staff -1].D/!>)! | %126
!pp![I:staff +1] !^!G,/[I:staff -1].D/[I:staff +1].D/[I:staff -1].D/[I:staff +1] .E/[I:staff -1].D/[I:staff +1].C/[I:staff -1].D/[I:staff +1] .D/[I:staff -1].D/[I:staff +1].B,/[I:staff -1].D/ | %127
[I:staff +1] !^!G,/[I:staff -1].D/[I:staff +1].D/[I:staff -1].D/[I:staff +1] .E/[I:staff -1].D/[I:staff +1].C/[I:staff -1].D/[I:staff +1] .D/[I:staff -1].D/[I:staff +1].B,/[I:staff -1].D/ | %128
!<(![I:staff +1] !^!G,/[I:staff -1].D/[I:staff +1].D/[I:staff -1].D/[I:staff +1] .E/[I:staff -1].D/[I:staff +1].C/[I:staff -1].D/[I:staff +1] .D/[I:staff -1].D/[I:staff +1].B,/[I:staff -1].D/ | %129
[I:staff +1] .C/[I:staff -1].D/[I:staff +1].A,/[I:staff -1].D/[I:staff +1] .B,/[I:staff -1].D/[I:staff +1].G,/[I:staff -1].D/[I:staff +1] .F,/[I:staff -1].D/[I:staff +1].E,/[I:staff -1].D/!<)! | %130
!pp![I:staff +1] !^!D,/[I:staff -1].D/[I:staff +1].D/[I:staff -1].D/[I:staff +1] .E/[I:staff -1].D/[I:staff +1].C/[I:staff -1].D/[I:staff +1] .D/[I:staff -1].D/[I:staff +1].A,/[I:staff -1].D/ | %131
[I:staff +1] !^!D,/[I:staff -1].D/[I:staff +1].D/[I:staff -1].D/[I:staff +1] .E/[I:staff -1].D/[I:staff +1].C/[I:staff -1].D/[I:staff +1] .D/[I:staff -1].D/[I:staff +1].A,/[I:staff -1].D/ | %132
!<(![I:staff +1] !^!D,/[I:staff -1].D/[I:staff +1].A,/[I:staff -1].D/[I:staff +1] .C/[I:staff -1].D/[I:staff +1].D/[I:staff -1].D/[I:staff +1] .E/[I:staff -1].D/[I:staff +1].F/[I:staff -1].D/!<)! | %133
!>(![I:staff +1] .D/[I:staff -1].D/[I:staff +1].E/[I:staff -1].D/[I:staff +1] .C/[I:staff -1].D/[I:staff +1].D/[I:staff -1].D/[I:staff +1] .B,/[I:staff -1].D/[I:staff +1].A,/[I:staff -1].D/!>)! | %134
!pp![I:staff +1] !^!D,/[I:staff -1].D/[I:staff +1].D/[I:staff -1].D/[I:staff +1] .E/[I:staff -1].D/[I:staff +1].C/[I:staff -1].D/[I:staff +1] .D/[I:staff -1].D/[I:staff +1].A,/[I:staff -1].D/ | %135
[I:staff +1] !^!D,/[I:staff -1].D/[I:staff +1].D/[I:staff -1].D/[I:staff +1] .E/[I:staff -1].D/[I:staff +1].C/[I:staff -1].D/[I:staff +1] .D/[I:staff -1].D/[I:staff +1].A,/[I:staff -1].D/ | %136
!<(![I:staff +1] !^!D,/[I:staff -1].D/[I:staff +1].C/[I:staff -1].D/[I:staff +1] .D/[I:staff -1].D/[I:staff +1].E/[I:staff -1].D/[I:staff +1] .F/[I:staff -1].D/[I:staff +1].D/[I:staff -1].D/!<)! | %137
!>(![I:staff +1] .E/[I:staff -1].D/[I:staff +1].C/[I:staff -1].D/[I:staff +1] .D/[I:staff -1].D/[I:staff +1].B,/[I:staff -1].D/[I:staff +1] .C/[I:staff -1].D/[I:staff +1].A,/[I:staff -1].D/!>)! | %138
!pp![I:staff +1] !^!G,/[I:staff -1].[Dd]/[I:staff +1].D/[I:staff -1].[Dd]/[I:staff +1] .E/[I:staff -1].[Dd]/[I:staff +1].C/[I:staff -1].[Dd]/[I:staff +1] .D/[I:staff -1].[Dd]/[I:staff +1].B,/[I:staff -1].[Dd]/ | %139
[I:staff +1] !^!G,/[I:staff -1].[Dd]/[I:staff +1].D/[I:staff -1].[Dd]/[I:staff +1] .E/[I:staff -1].[Dd]/[I:staff +1].C/[I:staff -1].[Dd]/[I:staff +1] .D/[I:staff -1].[Dd]/[I:staff +1].B,/[I:staff -1].[Dd]/ | %140
[I:staff +1] !^!G,/[I:staff -1].[Dd]/[I:staff +1].D/[I:staff -1].[Dd]/[I:staff +1] .E/[I:staff -1].[Dd]/[I:staff +1].C/[I:staff -1].[Dd]/[I:staff +1] .D/[I:staff -1].[Dd]/[I:staff +1].B,/[I:staff -1].[Dd]/ | %141
[I:staff +1] .C/[I:staff -1].[Dd]/[I:staff +1].A,/[I:staff -1].[Dd]/[I:staff +1] .B,/[I:staff -1].[Dd]/[I:staff +1].C/[I:staff -1].[Dd]/[I:staff +1] .A,/[I:staff -1].[Dd]/[I:staff +1].B,/[I:staff -1].[Dd]/ | %142
[I:staff +1] !^!G,/[I:staff -1].[Dd]/[I:staff +1].D/[I:staff -1].[Dd]/[I:staff +1] .E/[I:staff -1].[Dd]/[I:staff +1].C/[I:staff -1].[Dd]/[I:staff +1] .D/[I:staff -1].[Dd]/[I:staff +1].B,/[I:staff -1].[Dd]/ | %143
[I:staff +1] !^!G,/[I:staff -1].[Dd]/[I:staff +1].D/[I:staff -1].[Dd]/[I:staff +1] .E/[I:staff -1].[Dd]/[I:staff +1].C/[I:staff -1].[Dd]/[I:staff +1] .D/[I:staff -1].[Dd]/[I:staff +1].B,/[I:staff -1].[Dd]/ | %144
[I:staff +1] !^!G,/[I:staff -1].[Dd]/[I:staff +1].D/[I:staff -1].[Dd]/[I:staff +1] .E/[I:staff -1].[Dd]/[I:staff +1].C/[I:staff -1].[Dd]/[I:staff +1] .D/[I:staff -1].[Dd]/[I:staff +1].B,/[I:staff -1].[Dd]/ | %145
[I:staff +1] .C/[I:staff -1].[Dd]/[I:staff +1].A,/[I:staff -1].[Dd]/[I:staff +1] .B,/[I:staff -1].[Dd]/[I:staff +1].G,/[I:staff -1].[Dd]/[I:staff +1] .F,/[I:staff -1].[Dd]/[I:staff +1].E,/[I:staff -1].[Dd]/ | %146
 !^![d^fad']/.[Dd]/[I:staff +1] .D/[I:staff -1].[Dd]/[I:staff +1] .E/[I:staff -1].[Dd]/[I:staff +1].C/[I:staff -1].[Dd]/[I:staff +1] .D/[I:staff -1].[Dd]/[I:staff +1].A,/[I:staff -1].[Dd]/ | %147
 !^![d^fad']/.[Dd]/[I:staff +1] .D/[I:staff -1].[Dd]/[I:staff +1] .E/[I:staff -1].[Dd]/[I:staff +1].C/[I:staff -1].[Dd]/[I:staff +1] .D/[I:staff -1].[Dd]/[I:staff +1].A,/[I:staff -1].[Dd]/ | %148
 !^![d^fad']/.[Dd]/[I:staff +1] .A,/[I:staff -1].[Dd]/[I:staff +1] .C/[I:staff -1].[Dd]/[I:staff +1].D/[I:staff -1].[Dd]/[I:staff +1] .E/[I:staff -1].[Dd]/[I:staff +1].F/[I:staff -1].[Dd]/ | %149
[I:staff +1] .D/[I:staff -1].[Dd]/[I:staff +1].E/[I:staff -1].[Dd]/[I:staff +1] .C/[I:staff -1].[Dd]/[I:staff +1].D/[I:staff -1].[Dd]/[I:staff +1] .B,/[I:staff -1].[Dd]/[I:staff +1].A,/[I:staff -1].[Dd]/ | %150
 !^![d^fad']/.[Dd]/[I:staff +1] .D/[I:staff -1].[Dd]/[I:staff +1] .E/[I:staff -1].[Dd]/[I:staff +1].C/[I:staff -1].[Dd]/[I:staff +1] .D/[I:staff -1].[Dd]/[I:staff +1].A,/[I:staff -1].[Dd]/ | %151
 !^![d^fad']/.[Dd]/[I:staff +1] .D/[I:staff -1].[Dd]/[I:staff +1] .E/[I:staff -1].[Dd]/[I:staff +1].C/[I:staff -1].[Dd]/[I:staff +1] .D/[I:staff -1].[Dd]/[I:staff +1].A,/[I:staff -1].[Dd]/ | %152
 !^![d^fad']/.[Dd]/[I:staff +1] .A,/[I:staff -1].[Dd]/[I:staff +1] .C/[I:staff -1].[Dd]/[I:staff +1].D/[I:staff -1].[Dd]/[I:staff +1] .E/[I:staff -1].[Dd]/[I:staff +1].F/[I:staff -1].[Dd]/ | %153
[I:staff +1] .D/[I:staff -1].[Dd]/[I:staff +1].E/[I:staff -1].[Dd]/[I:staff +1] .C/[I:staff -1].[Dd]/[I:staff +1].D/[I:staff -1].[Dd]/[I:staff +1] .B,/[I:staff -1].[Dd]/[I:staff +1].D/[I:staff -1].[Dd]/ | %154
!fff! !^![gbd'g']/.[Dd]/[I:staff +1] .D/[I:staff -1].[Dd]/[I:staff +1] .E/[I:staff -1].[Dd]/[I:staff +1].C/[I:staff -1].[Dd]/[I:staff +1] .D/[I:staff -1].[Dd]/[I:staff +1].B,/[I:staff -1].[Dd]/ | %155
 !^![gbd'g']/.[Dd]/[I:staff +1] .D/[I:staff -1].[Dd]/[I:staff +1] .E/[I:staff -1].[Dd]/[I:staff +1].C/[I:staff -1].[Dd]/[I:staff +1] .D/[I:staff -1].[Dd]/[I:staff +1].B,/[I:staff -1].[Dd]/ | %156
!fff! !^![gbd'g']/.[Dd]/[I:staff +1] .D/[I:staff -1].[Dd]/[I:staff +1] .E/[I:staff -1].[Dd]/[I:staff +1].C/[I:staff -1].[Dd]/[I:staff +1] .D/[I:staff -1].[Dd]/[I:staff +1].B,/[I:staff -1].[Dd]/ | %157
[I:staff +1] .C/[I:staff -1].[Dd]/[I:staff +1].A,/[I:staff -1].[Dd]/[I:staff +1] .B,/[I:staff -1].[Dd]/[I:staff +1].C/[I:staff -1].[Dd]/[I:staff +1] .A,/[I:staff -1].[Dd]/[I:staff +1].B,/[I:staff -1].[Dd]/ | %158
!fff! !^![gbe'g']/.[Ee]/[I:staff +1] .E/[I:staff -1].[Ee]/[I:staff +1] .F/[I:staff -1].[Ee]/[I:staff +1].D/[I:staff -1].[Ee]/[I:staff +1] .E/[I:staff -1].[Ee]/[I:staff +1].B,/[I:staff -1].[Ee]/ | %159
!fff! !^![gbe'g']/.[Ee]/[I:staff +1] .E/[I:staff -1].[Ee]/[I:staff +1] .F/[I:staff -1].[Ee]/[I:staff +1].D/[I:staff -1].[Ee]/[I:staff +1] .E/[I:staff -1].[Ee]/[I:staff +1].B,/[I:staff -1].[Ee]/ | %160
!fff! !^![gbe'g']/.[Ee]/[I:staff +1] .E/[I:staff -1].[Ee]/[I:staff +1] .F/[I:staff -1].[Ee]/[I:staff +1].D/[I:staff -1].[Ee]/[I:staff +1] .E/[I:staff -1].[Ee]/[I:staff +1].B,/[I:staff -1].[Ee]/ | %161
[I:staff +1] .C/[I:staff -1].[Ee]/[I:staff +1].A,/[I:staff -1].[Ee]/[I:staff +1] .B,/[I:staff -1].[Ee]/[I:staff +1].C/[I:staff -1].[Ee]/[I:staff +1] .G,/[I:staff -1].[Ee]/[I:staff +1].A,/[I:staff -1].[Ee]/ | %162
!fff!!8va(! !^![d'^f'a'd'']/!8va)!.[Dd]/[I:staff +1] .D/[I:staff -1].[Dd]/[I:staff +1] .E/[I:staff -1].[Dd]/[I:staff +1].^C/[I:staff -1].[Dd]/[I:staff +1] .D/[I:staff -1].[Dd]/[I:staff +1].A,/[I:staff -1].[Dd]/ | %163
!ff!!8va(! !^![g'b'd''g'']/!8va)!.[Ee]/[I:staff +1] .E/[I:staff -1].[Ee]/[I:staff +1] .F/[I:staff -1].[Ee]/[I:staff +1].D/[I:staff -1].[Ee]/[I:staff +1] .E/[I:staff -1].[Ee]/[I:staff +1].B,/[I:staff -1].[Ee]/ | %164
!8va(! !^![d'^f'a'd'']/!8va)!.[Dd]/[I:staff +1] .D/[I:staff -1].[Dd]/[I:staff +1] .E/[I:staff -1].[Dd]/[I:staff +1].^C/[I:staff -1].[Dd]/[I:staff +1] .D/[I:staff -1].[Dd]/[I:staff +1].A,/[I:staff -1].[Dd]/ | %165
!8va(! !^![g'b'd''g'']/!8va)!.[Ee]/[I:staff +1] .E/[I:staff -1].[Ee]/[I:staff +1] .F/[I:staff -1].[Ee]/[I:staff +1].D/[I:staff -1].[Ee]/[I:staff +1] .E/[I:staff -1].[Ee]/[I:staff +1].B,/[I:staff -1].[Ee]/ | %166
!ff!!8va(! !^![d'^f'a'd'']/!8va)!.[Dd]/[I:staff +1] .D/[I:staff -1].[Dd]/[I:staff +1] .E/[I:staff -1].[Dd]/[I:staff +1].=C/[I:staff -1].[Dd]/[I:staff +1] .D/[I:staff -1].[Dd]/[I:staff +1].B,/[I:staff -1].[Dd]/ | %167
[I:staff +1] .C/[I:staff -1].[Dd]/[I:staff +1].A,/[I:staff -1].[Dd]/[I:staff +1] .B,/[I:staff -1].[Dd]/[I:staff +1].C/[I:staff -1].[Dd]/[I:staff +1] .A,/[I:staff -1].[Dd]/[I:staff +1].B,/[I:staff -1].[Dd]/ | %168
[I:staff +1] .G,/[I:staff -1].[Dd]/[I:staff +1].A,/[I:staff -1].[Dd]/[I:staff +1] .B,/[I:staff -1].[Dd]/[I:staff +1].C/[I:staff -1].[Dd]/[I:staff +1] .A,/[I:staff -1].[Dd]/[I:staff +1].B,/[I:staff -1].[Dd]/ | %169
[I:staff +1] .G,/[I:staff -1].[Dd]/[I:staff +1].A,/[I:staff -1].[Dd]/[I:staff +1] .B,/[I:staff -1].[Dd]/[I:staff +1].G,/[I:staff -1].[Dd]/[I:staff +1] .F,/[I:staff -1].[Dd]/[I:staff +1].E,/[I:staff -1].[Dd]/ | %170
!mf! !^![Dd]/.D/[I:staff +1] .D/[I:staff -1].D/[I:staff +1] .E/[I:staff -1].D/[I:staff +1].C/[I:staff -1].D/[I:staff +1] .D/[I:staff -1].D/[I:staff +1].B,/[I:staff -1].D/ | %171
[I:staff +1] .C/[I:staff -1].D/[I:staff +1].A,/[I:staff -1].D/[I:staff +1] .B,/[I:staff -1].D/[I:staff +1].C/[I:staff -1].D/[I:staff +1] .A,/[I:staff -1].D/[I:staff +1].B,/[I:staff -1].D/ | %172
[I:staff +1] .G,/[I:staff -1].D/[I:staff +1].A,/[I:staff -1].D/[I:staff +1] .B,/[I:staff -1].D/[I:staff +1].C/[I:staff -1].D/[I:staff +1] .A,/[I:staff -1].D/[I:staff +1].B,/[I:staff -1].D/ | %173
[I:staff +1] .G,/[I:staff -1].D/[I:staff +1].A,/[I:staff -1].D/[I:staff +1] .B,/[I:staff -1].D/[I:staff +1].G,/[I:staff -1].D/[I:staff +1] .F,/[I:staff -1].D/[I:staff +1].E,/[I:staff -1].D/ | %174
[K:bass] x6 | x6 | x6 | x6 |!<(! x6!<)! |!>(! x6!>)! | %180
[I:staff +1] D,,/[I:staff -1]^F,/[I:staff +1]F,/[I:staff -1]A,/[I:staff +1] A,/[I:staff -1][K:treble]D/[I:staff +1]D/[I:staff -1]^F/[I:staff +1] F/[I:staff -1]A/[I:staff +1]A/[I:staff -1]d/ | %181
[I:staff +1] d/[I:staff -1]^f/[I:staff +1]f/[I:staff -1]a/[I:staff +1] a/[I:staff -1]d'/[I:staff +1]d'/[I:staff -1]^f'/[I:staff +1] f'/[I:staff -1]a'/[I:staff +1]a'/!8va(![I:staff -1]b'/ | %182
 [d'^f'd'']6- | [d'f'd'']2!8va)! z2 |"^molto rit."[Q:1/4=52]"^lento" D2 |!>(!!>(! G6 | %186
 [B,D]6!>)!!>)! |!>(!!>(! E6 | !fermata![G,B,]6!>)!!>)! |!<(!!<(! _A6!<)!!<)! |!>(! _A4 G2!>)! | %191
 [E-G]6 | ^F6 | %193
[Q:1/4=92]"^quasi Andante"[I:staff +1] .G,/[I:staff -1].D/[I:staff +1].D/[I:staff -1].D/[I:staff +1] .E/[I:staff -1].D/[I:staff +1].C/[I:staff -1].D/[I:staff +1] .D/[I:staff -1].D/[I:staff +1].B,/[I:staff -1].D/ | %194
[I:staff +1] .G,/[I:staff -1].D/[I:staff +1].D/[I:staff -1].D/[I:staff +1] .E/[I:staff -1].D/[I:staff +1].C/[I:staff -1].D/[I:staff +1] .D/[I:staff -1].D/[I:staff +1].B,/[I:staff -1].D/ | %195
[I:staff +1] .G,/[I:staff -1].[DG]/[I:staff +1].[_E_B]/[I:staff -1].[DG]/[I:staff +1] .[^CB]/[I:staff -1].[DG]/[I:staff +1].[EB]/[I:staff -1].[DG]/[I:staff +1] .[CB]/[I:staff -1].[DG]/[I:staff +1].[EB]/[I:staff -1].[DG]/ | %196
[I:staff +1] .[^CB]/[I:staff -1].[DG]/[I:staff +1].[EB]/[I:staff -1].[DG]/[I:staff +1] .[CB]/[I:staff -1].[DG]/[I:staff +1].[EB]/[I:staff -1].[DG]/[I:staff +1] .[CB]/[I:staff -1].[DG]/[I:staff +1].[EB]/[I:staff -1].[DG]/ | %197
!ppp! [gd'g']6 | !fermata!G,6 |] %199
V:2
"_marcato il canto" x6 | x6 | x6 | x6 | x6 | x6 | x6 | x6 | x6 | x6 | x6 | x6 | x6 | x6 | x6 | x6 | %16
"_cresc.""_cresc." x6 | x6 | x6 | x6 |"_cresc." x6 | x6 | x6 |"_cresc." x6 | !^![D,,D,]!ff! x x4 | %25
 !^![D,,D,] x x4 | !^![D,,D,]!<(! x x4!<)! |!>(! x6!>)! | !^![D,,D,] x x4 | !^![D,,D,] x x4 | %30
 !^![D,,D,]!<(! x x4!<)! |"_sempre cresc." x6 | !^![G,,,G,,] x x4 | !^![G,,,G,,] x x4 | %34
 !^![G,,,G,,] x x4 | x6 | !^![^C,,^C,] x x4 | !^![^C,,^C,] x x4 | !^![^C,,^C,]!<(! x x4!<)! | %39
!>(! x6!>)! | !^![D,,D,]!<(! x!<)!!>(! x4!>)! | !^![^C,,^C,]!<(! x!<)!!>(! x4!>)! | %42
 !^![D,,D,]!<(! x!<)!!>(! x4!>)! | !^![^C,,^C,]!<(! x!<)!!>(! x4!>)! | %44
 !^![D,,D,] x"_dim. sempre""_dim." x4 | x6 | x6 | x6 | !^![D,,D,] x"_dim." x4 | x2!pp! x4 | x6 | %51
 x6 | %52
!ped!x/!<(![I:staff -1].[^F,A,]/[I:staff +1].A,,/[I:staff -1].[F,A,]/[I:staff +1] .D,/[I:staff -1].[F,A,]/!<)!!>(![I:staff +1].E,/[I:staff -1].[F,A,]/[I:staff +1] .^C,/[I:staff -1].[F,A,]/[I:staff +1].D,/[I:staff -1].[F,A,]/!ped-up!!>)! | %53
!ped![I:staff +1]x/!<(![I:staff -1].[G,B,]/[I:staff +1].A,,/[I:staff -1].[G,B,]/[I:staff +1] .E,/[I:staff -1].[G,B,]/!<)!!>(![I:staff +1].F,/[I:staff -1].[G,B,]/[I:staff +1] .D,/[I:staff -1].[G,B,]/[I:staff +1].E,/[I:staff -1].[G,B,]/!ped-up!!>)! | %54
!pp!!ped![I:staff +1]x/!<(![I:staff -1].[^F,A,]/[I:staff +1].A,,/[I:staff -1].[F,A,]/[I:staff +1] .D,/[I:staff -1].[F,A,]/!<)!!>(![I:staff +1].E,/[I:staff -1].[F,A,]/[I:staff +1] .^C,/[I:staff -1].[F,A,]/[I:staff +1].D,/[I:staff -1].[F,A,]/!ped-up!!>)! | %55
!ped![I:staff +1]x/!<(![I:staff -1].[G,B,]/[I:staff +1].A,,/[I:staff -1].[G,B,]/[I:staff +1] .E,/[I:staff -1].[G,B,]/!<)!!>(![I:staff +1].F,/[I:staff -1].[G,B,]/[I:staff +1] .D,/[I:staff -1].[G,B,]/[I:staff +1].E,/[I:staff -1].[G,B,]/!ped-up!!>)! | %56
!ped![I:staff +1]x/[I:staff -1].[^F,A,]/[I:staff +1].A,,/[I:staff -1].[F,A,]/[I:staff +1] .D,/[I:staff -1].[F,A,]/[I:staff +1]._E,/[I:staff -1].[F,A,]/[I:staff +1] .^C,/[I:staff -1].[F,A,]/[I:staff +1].E,/[I:staff -1].[F,A,]/ | %57
[I:staff +1] D,/[I:staff -1].[^F,A,]/[I:staff +1]._E,/[I:staff -1].[F,A,]/[I:staff +1] .^C,/[I:staff -1].[F,A,]/[I:staff +1].E,/[I:staff -1].[F,A,]/[I:staff +1] .D,/[I:staff -1].[F,A,]/[I:staff +1].A,,/[I:staff -1].[F,A,]/ | %58
[I:staff +1] x3[K:treble] x x2 | x6 | [da]6- | [da]2!ped-up! z2 z2 ||!ped! (D4 CD | F4 PDC | %64
 D4)!ped-up![K:bass]!ped! [D,,D,]2- | !fermata![D,,D,]6!ped-up! |[K:treble]!ped! (D4 CD | F4 PDC | %68
 D4)!ped-up![K:bass]!ped! [B,,,B,,]2- | !fermata![B,,,B,,]6!ped-up! |[K:treble]!ped! (D4 ^C2- | %71
 C2{B,=C} B,A, G,B, | A,4)!ped-up![K:bass]!ped! [D,,D,]2- | !fermata![D,,D,]6!ped-up! | %74
[K:treble]!ped! (D4 ED | ^CA,{B,=C} B,A, G,B, | A,4)!ped-up![K:bass] (E,2 |!ped! D,6)!ped-up! | %78
 B,6 | =A,6 | B,6 | (A,4 ^F,2) | G,6 | =F,6 | [E,-B,]6 |!ped! !fermata![E,A,]6!ped-up! | %86
!ped! z2 A,4!ped-up! | (CD EF/E/ DC) |!ped! z2 A,4!ped-up! | (CD EF/E/ DC) | z2 A,4 | %91
[K:treble] (CD EF/E/ DC | D^C A,=C =B,G, |[K:bass] _B,A, ^F,_A, G,_E,) | z2 A,4 | %95
!<(! (DE F!<)!G/F/ ED) |!ped! z2 D4!ped-up! |!<(! (DE F!<)!G/F/ ED) |!ped! z2 D4!ped-up! | %99
!>(! (C2 B,2 A,2 | G,2 ^F,2 G,2!>)! | E2 D2 C2 | B,2 A,2 B,2) | (_A,B, CE P_DC | %104
 EC B,A, C!fermata!E) | C,4 ^C,2 | z2 A,4 |!<(! (CD E!<)!F/E/ DC) | z2 A,4 | %109
!<(! (CD E!<)!F/E/ DC) | z2 A,4 | x6 | x6 | x6 | (D4 CD | F4 PDC | D4)[K:bass]!ped! [D,,D,]2- | %117
 !fermata![D,,D,]6!ped-up! |[K:treble] (D4 CD | F4 PDC | D4)[K:bass] E,2 | %121
!ped! !fermata!D,6!ped-up! ||"_marcato il canto" x6 | x6 | x6 | x6 | x6 | x6 | x6 | x6 | x6 | x6 | %132
 x6 | x6 | x6 | x6 | x6 | x6 |"_cresc.""_cresc." x6 | x6 | x6 | x6 |"_cresc." x6 | x6 | x6 | %145
"_cresc." x6 | !^![D,,D,]!ff! x x4 | !^![D,,D,] x x4 | !^![D,,D,]!<(! x x4!<)! |!>(! x6!>)! | %150
 !^![D,,D,] x x4 | !^![D,,D,] x x4 | !^![D,,D,]!<(! x x4!<)! |"_sempre cresc." x6 | %154
 !^![G,,,G,,] x x4 | !^![G,,,G,,] x x4 | !^![G,,,G,,] x x4 | x6 | !^![^C,,^C,] x x4 | %159
 !^![^C,,^C,] x x4 | !^![^C,,^C,]!<(! x x4!<)! |!>(! x6!>)! | !^![D,,D,]!<(! x!<)!!>(! x4!>)! | %163
 !^![^C,,^C,]!<(! x!<)!!>(! x4!>)! | !^![D,,D,]!<(! x!<)!!>(! x4!>)! | %165
 !^![^C,,^C,]!<(! x!<)!!>(! x4!>)! | !^![D,,D,] x"_dim. sempre""_dim." x4 | x6 | x6 | x6 | %170
 !^![D,,D,] x"_dim." x4 | x2!pp! x4 | x6 | x6 | %174
!ped!x/!<(![I:staff -1].[^F,A,]/[I:staff +1].A,,/[I:staff -1].[F,A,]/[I:staff +1] .D,/[I:staff -1].[F,A,]/!<)!!>(![I:staff +1].E,/[I:staff -1].[F,A,]/[I:staff +1] .^C,/[I:staff -1].[F,A,]/[I:staff +1].D,/[I:staff -1].[F,A,]/!ped-up!!>)! | %175
!ped![I:staff +1]x/!<(![I:staff -1].[G,B,]/[I:staff +1].A,,/[I:staff -1].[G,B,]/[I:staff +1] .E,/[I:staff -1].[G,B,]/!<)!!>(![I:staff +1].F,/[I:staff -1].[G,B,]/[I:staff +1] .D,/[I:staff -1].[G,B,]/[I:staff +1].E,/[I:staff -1].[G,B,]/!ped-up!!>)! | %176
!pp!!ped![I:staff +1]x/!<(![I:staff -1].[^F,A,]/[I:staff +1].A,,/[I:staff -1].[F,A,]/[I:staff +1] .D,/[I:staff -1].[F,A,]/!<)!!>(![I:staff +1].E,/[I:staff -1].[F,A,]/[I:staff +1] .^C,/[I:staff -1].[F,A,]/[I:staff +1].D,/[I:staff -1].[F,A,]/!ped-up!!>)! | %177
!ped![I:staff +1]x/!<(![I:staff -1].[G,B,]/[I:staff +1].A,,/[I:staff -1].[G,B,]/[I:staff +1] .E,/[I:staff -1].[G,B,]/!<)!!>(![I:staff +1].F,/[I:staff -1].[G,B,]/[I:staff +1] .D,/[I:staff -1].[G,B,]/[I:staff +1].E,/[I:staff -1].[G,B,]/!ped-up!!>)! | %178
!ped![I:staff +1]x/[I:staff -1].[^F,A,]/[I:staff +1].A,,/[I:staff -1].[F,A,]/[I:staff +1] .D,/[I:staff -1].[F,A,]/[I:staff +1]._E,/[I:staff -1].[F,A,]/[I:staff +1] .^C,/[I:staff -1].[F,A,]/[I:staff +1].E,/[I:staff -1].[F,A,]/ | %179
[I:staff +1] D,/[I:staff -1].[^F,A,]/[I:staff +1]._E,/[I:staff -1].[F,A,]/[I:staff +1] .^C,/[I:staff -1].[F,A,]/[I:staff +1].E,/[I:staff -1].[F,A,]/[I:staff +1] .D,/[I:staff -1].[F,A,]/[I:staff +1].A,,/[I:staff -1].[F,A,]/ | %180
[I:staff +1] x3[K:treble] x x2 | x6 | [da]6- | [da]2!ped-up! z2 | z2 | E,6 | [B,,F,]6 | C,6 | %188
 !fermata![G,,D,]6 | C4 _D2 | C6 | C6- | C2 B,2 !fermata!A,2 | x6 | x6 |!<(! x[K:treble] x x4!<)! | %196
!>(!!>(! x6!>)!!>)! |[K:bass] [G,,D,B,]6 | !fermata!G,,,6 |] %199
V:3
 x6 | x6 | x6 | x6 | x6 | x6 | x6 | x6 | x6 | x6 | x6 | x6 | x6 | x6 | x6 | x6 | x6 | x6 | x6 | %19
 x6 | x6 | x6 | x6 | x6 | x6 | x6 | x6 | x6 | x6 | x6 | x6 | x6 | x6 | x6 | x6 | x6 | x6 | x6 | %38
 x6 | x6 | x6 | x6 | x6 | x6 | x6 | x6 | x6 | x6 | x6 | x6 | x6 | x6 | D,,6 | D,,6 | D,,6 | D,,6 | %56
 D,,6- | D,,6 | x3[K:treble] x3 | x6 | x6 | x6 || x6 | x6 | x4[K:bass] x2 | x6 |[K:treble] x6 | %67
 x6 | x4[K:bass] x2 | x6 |[K:treble] x6 | x6 | x4[K:bass] x2 | x6 |[K:treble] x6 | x6 | %76
 x4[K:bass] x2 | x6 | x6 | x6 | x6 | x6 | x6 | x6 | x6 | x6 | D,6 | x6 | D,6 | x6 | D,6 | %91
[K:treble] x6 | x6 |[K:bass] x6 | D,6 | x6 | G,6 | x6 | G,6 | x6 | x6 | x6 | x6 | x6 | x6 | x6 | %106
 D,6 | x6 | D,6 | x6 | D,6 | x6 | x6 | x6 | x6 | x6 | x4[K:bass] x2 | x6 |[K:treble] x6 | x6 | %120
 x4[K:bass] x2 | x6 || x6 | x6 | x6 | x6 | x6 | x6 | x6 | x6 | x6 | x6 | x6 | x6 | x6 | x6 | x6 | %137
 x6 | x6 | x6 | x6 | x6 | x6 | x6 | x6 | x6 | x6 | x6 | x6 | x6 | x6 | x6 | x6 | x6 | x6 | x6 | %156
 x6 | x6 | x6 | x6 | x6 | x6 | x6 | x6 | x6 | x6 | x6 | x6 | x6 | x6 | x6 | x6 | x6 | x6 | D,,6 | %175
 D,,6 | D,,6 | D,,6 | D,,6- | D,,6 | x3[K:treble] x3 | x6 | x6 | x4 | x2 | x6 | x6 | x6 | x6 | x6 | %190
 x6 | D,6- | D,6 | x6 | x6 | x[K:treble] x5 | x6 |[K:bass] x6 | x6 |] %199
V:4
 x6 | x6 | x6 | x6 | x6 | x6 | x6 | x6 | x6 | x6 | x6 | x6 | x6 | x6 | x6 | x6 | x6 | x6 | x6 | %19
 x6 | x6 | x6 | x6 | x6 | x6 | x6 | x6 | x6 | x6 | x6 | x6 | x6 | x6 | x6 | x6 | x6 | x6 | x6 | %38
 x6 | x6 |!8va(! x/!8va)! x11/2 |!8va(! x/!8va)! x11/2 |!8va(! x/!8va)! x11/2 | %43
!8va(! x/!8va)! x11/2 |!8va(! x/!8va)! x11/2 | x6 | x6 | x6 | x6 | x6 | x6 | x6 |[K:bass] x6 | x6 | %54
 x6 | x6 | x6 | x6 | x5/2[K:treble] x7/2 | x11/2!8va(! x/ | x6 | x2!8va)! x4 || x6 | x6 | x6 | x6 | %66
 x6 | x6 | x6 | x6 | x6 | x6 | x6 | x6 | x6 | x6 | x6 | x6 | x6 | x2 [_CE]2- [CE]2 | x6 | x2 D4 | %82
 x2 D4 | x2 D4 | x2 D4 | x6 | x6 | x6 | x6 | x6 | x6 | x6 | x6 | x6 | x6 | x6 | x6 | x6 | x6 | %99
 G2 G2 ^F2 | D2 D2 D2 | B2 B2 A2 | F2 F2 F2 | x6 | x6 | A,4 [G,B,]2 | x6 | x6 | x6 | x6 | x6 | x6 | %112
 x6 | x6 | x6 | x6 | x6 | x6 | x6 | x6 | x6 | x6 || x6 | x6 | x6 | x6 | x6 | x6 | x6 | x6 | x6 | %131
 x6 | x6 | x6 | x6 | x6 | x6 | x6 | x6 | x6 | x6 | x6 | x6 | x6 | x6 | x6 | x6 | x6 | x6 | x6 | %150
 x6 | x6 | x6 | x6 | x6 | x6 | x6 | x6 | x6 | x6 | x6 | x6 |!8va(! x/!8va)! x11/2 | %163
!8va(! x/!8va)! x11/2 |!8va(! x/!8va)! x11/2 |!8va(! x/!8va)! x11/2 |!8va(! x/!8va)! x11/2 | x6 | %168
 x6 | x6 | x6 | x6 | x6 | x6 |[K:bass] x6 | x6 | x6 | x6 | x6 | x6 | x5/2[K:treble] x7/2 | %181
 x11/2!8va(! x/ | x6 | x2!8va)! x2 | x2 | [G,B,]4 C2 | x6 | G,4 A,2 | x6 | E4 _F2 | E6 | x6 | %192
 E2"^rall." D2 !fermata!C2 | x6 | x6 | x6 | x6 | x6 | x6 |] %199
V:5
 x6 | x6 | x6 | x6 | x6 | x6 | x6 | x6 | x6 | x6 | x6 | x6 | x6 | x6 | x6 | x6 | x6 | x6 | x6 | %19
 x6 | x6 | x6 | x6 | x6 | x6 | x6 | x6 | x6 | x6 | x6 | x6 | x6 | x6 | x6 | x6 | x6 | x6 | x6 | %38
 x6 | x6 |!8va(! x/!8va)! x11/2 |!8va(! x/!8va)! x11/2 |!8va(! x/!8va)! x11/2 | %43
!8va(! x/!8va)! x11/2 |!8va(! x/!8va)! x11/2 | x6 | x6 | x6 | x6 | x6 | x6 | x6 |[K:bass] x6 | x6 | %54
 x6 | x6 | x6 | x6 | x5/2[K:treble] x7/2 | x11/2!8va(! x/ | x6 | x2!8va)! x4 || x6 | x6 | x6 | x6 | %66
 x6 | x6 | x6 | x6 | x6 | x6 | x6 | x6 | x6 | x6 | x6 | x6 | x6 | x6 | x6 | x2 (^c2 =c2) | x6 | %83
 x6 | x6 | x6 | x6 | x6 | x6 | x6 | x6 | x6 | x6 | x6 | x6 | x6 | x6 | x6 | x6 | x6 | x6 | x6 | %102
 x6 | x6 | x6 | x6 | x6 | x6 | x6 | x6 | x6 | x6 | x6 | x6 | x6 | x6 | x6 | x6 | x6 | x6 | x6 | %121
 x6 || x6 | x6 | x6 | x6 | x6 | x6 | x6 | x6 | x6 | x6 | x6 | x6 | x6 | x6 | x6 | x6 | x6 | x6 | %140
 x6 | x6 | x6 | x6 | x6 | x6 | x6 | x6 | x6 | x6 | x6 | x6 | x6 | x6 | x6 | x6 | x6 | x6 | x6 | %159
 x6 | x6 | x6 |!8va(! x/!8va)! x11/2 |!8va(! x/!8va)! x11/2 |!8va(! x/!8va)! x11/2 | %165
!8va(! x/!8va)! x11/2 |!8va(! x/!8va)! x11/2 | x6 | x6 | x6 | x6 | x6 | x6 | x6 |[K:bass] x6 | x6 | %176
 x6 | x6 | x6 | x6 | x5/2[K:treble] x7/2 | x11/2!8va(! x/ | x6 | x2!8va)! x2 | x2 | x6 | x6 | x6 | %188
 x6 | x6 | x6 | x6 | x6 | x6 | x6 | x6 | x6 | x6 | x6 |] %199

